!!!!SEGMENT: pl-kk--kk-i-11--002-003_anonim--pro-organo-missa-patrem.krn
!!!cenid: 16xx:1240
!!!COM: Anonim
!!!COM-rismID: pe30004985
!!!CDT:
!!!CNT:
!!!OPR: Pro organo Missa
!!!OTL: Patrem
!!!OMV: 003
!!!PDT:
!!!AGN: Sacred
!!!SMS-siglum: PL-Kk
!!!SMS-shelfmark: Kk.I.11
!!!SMS-shelfwork: 002-003 M
!!!SMS-variant:
!!!SMS-altvar:
!!!NIFC-rismSourceID: 1001154133
!!!NIFC-islandoraID: pl-kk:2582
!!!URL-pdf-islandora: https://repozytorium.nifc.pl/islandora/object/pl-kk%3A2582/datastream/PDF/view
!!!URL-scan: https://polish.musicsources.pl/pl/lokalizacje/galeria/rekopisy/5745 @EN{Scan on Polish Music Herritage in Open Access Website} @PL{Skany w portalu Dziedzictwo Muzyki Polskiej w otwartym dostępie}
!!!ONB-nifc: UWAGA: części Mszy: 1. Kyrie, 2. Et in terra, 3. Patrem. Skany 0009-0010 (tylko org)
!!!AIN: 1 organ
!!!key:
**kern
*Iorgan
*I"[Organo]
*I'org
*clefF4
*k[]
*C:
*M2/1
*met(c|)
*all\right
*2\right
=1-
!LO:TX:b:t=Patrem
1GG
1C
=2-
1.GG
2FF/
=3-
1EE
1D
=4-
1G
1E
=5-
1A
!LO:TX:t=P:problem=2\right&colon; global
2F\
2D/
=6-
2G\
2E\
1C
=7-
2D/
2GG/
1D
=8-
2GG/
2G\
2A\
!LO:TX:a:t=P:problem=# above
4F#X\
2G\
=9-
.
4F#X\
*custos:D
2E\
!LO:LB:g=original
1D
!!linebreak:original
=10-
1AA
1D
=11-
4BB/
4GG/
2G\
2E\
2A\
=12-
1F
2.C/
4BB/
=13-
2AA/
2GG#X/
1AA
=14-
2.E\
4A\
2G\
4E\
2F\
=15-
.
4C/
2GG/
2C/
4c\
4B\
=16-
4A\
4G\
2F\
2E\
2AA/
=17-
2E\
*custos:BB
2AA/
!LO:LB:g=original
1BB
!!linebreak:original
=18-
1E
2F\
2D/
=19-
2G\
4E\
4C/
2F\
2D/
=20-
2G\
2E\
4A\
4G\
4F\
4E\
=21-
4D/
4C/
2BB/
2AA/
2E\
=22-
2AA/
2E\
4F\
4D\
2E\
=23-
2.D/
4C#X/
2F\
2A\
=24-
2D/
2BB/
2AA/
*custos:F
2E\
!LO:LB:g=original
=25-
4F#X\
4D\
2A\
4F#\
4G\
2D/
=26-
2GG/
4G\
4E\
2F\
2G\
=27-
2C/
2FF/
2.C/
4AA/
=28-
2BB-X/
2C/
1FF
=29-
1FF
2.BB-X/
4AA/
=30-
1BB-X
2FF/
4F\
4E\
=31-
2D/
2AA/
4A\
4G\
2F\
=32-
*custos:C
2E\
!LO:LB:g=original
4C/
4BB/
4.AA/
8GG/
4FF/
4GG/
=33-
2D/
2GG/
4E\
4F#X\
4G\
4E\
=34-
4C/
4D/
2GG/
1AA
=35-
!LO:TX:t=P:problem=kreska pseudotaktowa
1D
!LO:TX:b:t=ET incarnat(us)
2D/
2BB/
=36-
1C
0D
=37-
.
1GG
=38-
1AA
2BB/
1C/
=39-
.
2BB/
*custos:C
1C
!LO:LB:g=original
=40-
1.C
1BB-X/
=41-
.
2AA/
1GG
=42-
1FF
1GG
=43-
2.C/
4BB-X/
2AA/
2GG/
=44-
1AA
1GG
=45-
2E\
2C/
2AA/
2FF/
=46-
2F\
2E-X\
0D
=47-
.
1GG;
!LO:LB:g=original
*clefC4
=48-
*M2/1
*met(c|)
!LO:TX:b:t=CRucifixus
1d
!LO:TX:t=P:problem=kreska pseudotaktowa
1r
=49
2d/
1G
!LO:TX:t=P:problem=kreska pseudotaktowa
2B/
=50
2r
2.e/
2E\
!LO:TX:t=P:problem=kreska pseudotaktowa
4d/
=51
4c#X/
2.A\
4B/
4G\
!LO:TX:t=P:problem=kreska pseudotaktowa
2c#/
=52
2d/
2F#X\
4.d/
2F#\]
!LO:TX:t=P:problem=kreska pseudotaktowa
8c/
=53
2B/
1G
!LO:TX:t=P:problem=kreska pseudotaktowa
2d/
=54
4c/
2E\
4B/
4A/
2G\
4G/
=55-
*clefF4
1D
1E
=56-
1D
1E
=57-
*custos:G
1G
!LO:LB:g=original
2G\
2E\
=58-
1A
1F#X
=59-
1G
4E/
4D/
4C/
4BB/
=60-
2AA/
2BB/
1C
=61-
1GG
4C/
4AA/
1D/
=62-
.
2C#X/
1D
=63-
[2AA/
2AA]
[2AA/
2AA]
=64-
1D
*custos:DD
1GG
!LO:LB:g=original
=65-
0DD
=66-
1BB-X
1FF
=67-
1FF
2F\
2E\
=68-
1D
1C#X
=69-
1D
1AA
=70-
1AA
1D;<
!LO:PB:g=original
=71-
*M3/1
!LO:TX:b:t=Et reſurrexit
1D
1BB
1FF#X
=72-
0.GG
=73-
0.D
=74-
1G
1E
1BB
=75-
0.C
=76-
*M2/1
*met(c|)
2.G\
4E\
2F\
2G\
=77-
2.C/
8BB/L
8AA/J
2GG/
4G\
8F\L
8E\J
=78-
1D
=79-
*M3/1
0.GG
!LO:LB:g=original
=80-
0.GG
=81-
0C
!LO:TX:b:t=a
1AA
=82-
0.FF
=83-
0.GG
=84-
0.C
=85-
0A
1F
=86-
1D
1AA
1BB-X
=87-
0.AA
=88-
0.D
=89-
0.AA
=90-
0.C
=91-
0.GG
=92-
0.D
=93-
0F
1D
=94-
*col
1GG
0AA
*Xcol
=95-
*custos:E
0.D
!LO:LB:g=original
=96-
0E
1C
=97-
1E
1C
1D
=98-
0.GG
=99-
1.G
2F\
2E\
2D/
=100-
0.C
=101-
0.F
=102-
0.E
=103-
0.D
=104-
0C
1BB
=105-
0C
1GG
=106-
1G
1A
1F
=107-
1E
1C
1E
=108-
1G
1C
*custos:GG
1D
!LO:LB:g=original
=109-
0GG
1FF#X
=110-
0.GG
=111-
*col
0C
0BB
=112-
.
0AA
*Xcol
=113-
0GG
1E
=114-
1.F
2D/
1A
=115-
0.D
=116-
0.GG
=117-
0C
1GG
=118-
1.AA
2BB/
1C
=119-
*col
1AA
0E
*Xcol
=120-
0AA
1E
=121-
0.A
=122-
*col
1F
*custos:C
0G
*Xcol
!LO:LB:g=original
=123-
0.C
=124-
1.c
2G\
1A
=125-
*col
1E
0F
*Xcol
=126-
0.E
=127-
1.C
2GG/
1AA
=128-
1BB
1C
1D
=129-
*M2/1
*met(c|)
2GG/
4G\
4E\
2A\
2F\
=130-
4D/
2C/
4GG/
2C/
2AA/
=131-
2.GG/
4FF/
2GG/
4E\
*custos:AA
4D\
!LO:LB:g=original
=132-
2AA/
2D/
4D/
!LO:TX:b:t=P:problem=# below
4C#X/
2D/
=133-
4BB/
4AA/
2E\
2A\
2D/
=134-
2AA/
2A\
2G,\
2F\
=135-
1G
=136-
*M3/1
0D
1AA
=137-
0BB-X
1FF
=138-
1.GG
2D/
1E-X
=139-
*col
1C
0GG
*Xcol
=140-
0C
1GG
=141-
*custos:C
0.C
!LO:LB:g=original
=142-
1C
1.c
2B-X\
=143-
1.A
2F\
1.B-X
=144-
.
2A\
2G\
2F\
1E
=145-
*col
1D
0AA
*Xcol
=146-
0D
1AA
=147-
0D
1AA
=148-
1D
1BB-X
1C
=149-
0FF
1C
=150-
*col
1BB-X
0D
*Xcol
=151-
0.GG
=152-
1G
1c
*custos:G
1A
!LO:LB:g=original
=153-
0.G
=154-
1F#X
1G
1A
=155-
1D
1G
1E
=156-
0.D
=157-
1C
1D
1E
=158-
*col
0AA
0E
=159-
.
1F
1G
*Xcol
=160-
1C
1F
1D
=161-
0.C
=162-
1BB
1C
*custos:GG
1D
!LO:LB:g=original
=163-
*M2/1
*met(c|)
2GG/
2C/
2.G\
4F\
=164-
2E\
2G\
2GG/
4D/
4C/
=165-
4D/
4GG/
2D/
!LO:N:vis=0
2GG;;
==
*-
!!!RDF**kern: > = above
!!!RDF**kern: < = below
!!!ENC: Kamil Watkowski
!!!END: 2021-07-09
